src/icons/netlify.svg

<svg viewBox="0 0 40 40" xmlns="http://www.w3.org/2000/svg">
  <path
    d="M27.84 14.658L27.827 14.653C27.82 14.65 27.813 14.647 27.807 14.641C27.7964 14.6298 27.7886 14.6163 27.7841 14.6015C27.7796 14.5868 27.7785 14.5712 27.781 14.556L28.485 10.252L31.787 13.554L28.353 15.015C28.3435 15.0186 28.3333 15.0203 28.323 15.02H28.309C28.3024 15.0158 28.2964 15.0107 28.291 15.005C28.1632 14.8627 28.0103 14.7451 27.84 14.658ZM32.63 14.396L36.16 17.926C36.893 18.66 37.26 19.026 37.394 19.451C37.414 19.514 37.43 19.576 37.443 19.641L29.006 16.068C29.0014 16.0663 28.9967 16.0646 28.992 16.063C28.959 16.049 28.919 16.033 28.919 15.999C28.919 15.964 28.959 15.948 28.993 15.934L29.004 15.93L32.63 14.396ZM37.299 20.774C37.117 21.117 36.761 21.472 36.16 22.074L32.18 26.054L27.032 24.981L27.005 24.976C26.959 24.968 26.911 24.96 26.911 24.919C26.8913 24.7067 26.8282 24.5007 26.7255 24.3139C26.6228 24.1271 26.4827 23.9634 26.314 23.833C26.294 23.812 26.299 23.779 26.305 23.749C26.305 23.744 26.305 23.739 26.307 23.736L27.275 17.792L27.279 17.772C27.284 17.726 27.293 17.674 27.334 17.674C27.5414 17.648 27.7416 17.5811 27.9229 17.4771C28.1042 17.373 28.263 17.234 28.39 17.068C28.398 17.058 28.404 17.048 28.415 17.043C28.444 17.03 28.478 17.043 28.508 17.056L37.299 20.774ZM31.265 26.968L24.72 33.514L25.84 26.628L25.842 26.618C25.8428 26.6092 25.8445 26.6004 25.847 26.592C25.857 26.57 25.88 26.562 25.903 26.552L25.913 26.548C26.1587 26.4434 26.376 26.282 26.547 26.077C26.568 26.051 26.595 26.027 26.629 26.022C26.6376 26.0206 26.6464 26.0206 26.655 26.022L31.264 26.969L31.265 26.968ZM23.335 34.898L22.597 35.637L14.44 23.849C14.4371 23.8446 14.4341 23.8402 14.431 23.836C14.418 23.819 14.405 23.801 14.407 23.781C14.408 23.767 14.417 23.754 14.427 23.743L14.437 23.731C14.461 23.695 14.482 23.658 14.505 23.619L14.523 23.587L14.526 23.584C14.539 23.563 14.551 23.542 14.572 23.53C14.592 23.52 14.618 23.524 14.639 23.529L23.675 25.392C23.7006 25.3958 23.7247 25.4061 23.745 25.422C23.7545 25.4333 23.7604 25.4473 23.762 25.462C23.825 25.7004 23.9423 25.921 24.1047 26.1066C24.267 26.2922 24.4701 26.4378 24.698 26.532C24.723 26.545 24.712 26.572 24.701 26.602C24.6949 26.6155 24.6903 26.6295 24.687 26.644L23.334 34.899L23.335 34.898ZM21.793 36.439C21.249 36.977 20.929 37.262 20.566 37.377C20.2087 37.4899 19.8253 37.4899 19.468 37.377C19.043 37.242 18.676 36.877 17.943 36.142L9.75303 27.952L11.892 24.633C11.9009 24.6163 11.9132 24.6017 11.928 24.59C11.951 24.574 11.984 24.581 12.011 24.59C12.5021 24.7383 13.0294 24.7118 13.503 24.515C13.528 24.505 13.553 24.499 13.571 24.517C13.5808 24.5256 13.5895 24.5354 13.597 24.546L21.793 36.439ZM8.96303 27.162L7.08303 25.282L10.793 23.7C10.8028 23.6955 10.8133 23.6931 10.824 23.693C10.854 23.693 10.874 23.724 10.89 23.753C10.9272 23.8101 10.9666 23.8658 11.008 23.92L11.02 23.935C11.03 23.95 11.023 23.965 11.013 23.98L8.96303 27.162ZM6.25103 24.45L3.87303 22.073C3.46903 21.668 3.17603 21.375 2.97203 21.123L10.2 22.622C10.209 22.6238 10.218 22.6255 10.227 22.627C10.272 22.634 10.321 22.642 10.321 22.684C10.321 22.729 10.267 22.75 10.221 22.768L10.201 22.777L6.25103 24.45ZM2.55603 19.9C2.56435 19.7471 2.5919 19.5959 2.63803 19.45C2.77303 19.025 3.13903 18.66 3.87303 17.925L6.91503 14.883C8.3159 16.9156 9.72057 18.9456 11.129 20.973C11.153 21.006 11.181 21.043 11.153 21.07C11.0144 21.2151 10.8936 21.3762 10.793 21.55C10.7828 21.5726 10.767 21.5922 10.747 21.607C10.735 21.615 10.723 21.612 10.709 21.609H10.707L2.55703 19.899L2.55603 19.9ZM7.73003 14.069L11.82 9.97897C12.205 10.147 13.604 10.738 14.855 11.266C15.802 11.666 16.665 12.031 16.937 12.149C16.964 12.16 16.989 12.171 17.001 12.199C17.008 12.215 17.005 12.236 17.001 12.253C16.9362 12.5482 16.9458 12.8549 17.0288 13.1456C17.1119 13.4362 17.2659 13.7016 17.477 13.918C17.505 13.946 17.477 13.985 17.454 14.018L17.441 14.038L13.287 20.471C13.2778 20.4889 13.2644 20.5043 13.248 20.516C13.226 20.53 13.195 20.524 13.17 20.517C13.0083 20.4747 12.8421 20.4523 12.675 20.45C12.526 20.45 12.364 20.477 12.2 20.507C12.18 20.51 12.164 20.513 12.15 20.503C12.1339 20.4897 12.12 20.4738 12.109 20.456L7.73003 14.069ZM12.646 9.15197L17.942 3.85597C18.675 3.12297 19.042 2.75597 19.467 2.62197C19.8243 2.50907 20.2077 2.50907 20.565 2.62197C20.989 2.75597 21.356 3.12297 22.09 3.85597L23.237 5.00397L19.471 10.837C19.4619 10.854 19.4493 10.869 19.434 10.881C19.411 10.896 19.379 10.89 19.352 10.881C19.0549 10.7906 18.7403 10.7741 18.4353 10.8329C18.1304 10.8916 17.8444 11.0238 17.602 11.218C17.578 11.243 17.542 11.228 17.511 11.215C17.019 11.001 13.194 9.38497 12.646 9.15197ZM24.037 5.80397L27.515 9.28097L26.677 14.471V14.485C26.6763 14.4966 26.674 14.508 26.67 14.519C26.66 14.538 26.642 14.541 26.624 14.547C26.445 14.6011 26.2763 14.6849 26.125 14.795C26.1186 14.7998 26.1126 14.8051 26.107 14.811C26.097 14.821 26.087 14.831 26.07 14.834C26.0567 14.8342 26.0435 14.8318 26.031 14.827L20.732 12.576L20.722 12.571C20.688 12.558 20.648 12.541 20.648 12.507C20.6171 12.2115 20.5207 11.9266 20.366 11.673C20.34 11.631 20.312 11.588 20.334 11.545L24.037 5.80397ZM20.456 13.642L25.424 15.746C25.451 15.759 25.481 15.771 25.493 15.799C25.4978 15.816 25.4978 15.834 25.493 15.851C25.4759 15.9299 25.4665 16.0102 25.465 16.091V16.23C25.465 16.265 25.43 16.28 25.397 16.293L25.387 16.297C21.7004 17.8706 18.0124 19.4409 14.323 21.008C14.308 21.008 14.291 21.008 14.276 20.993C14.248 20.965 14.276 20.927 14.3 20.893C14.3045 20.8867 14.3088 20.8804 14.313 20.874L18.395 14.554L18.403 14.542C18.426 14.504 18.453 14.462 18.497 14.462L18.538 14.468C18.631 14.48 18.713 14.492 18.796 14.492C19.416 14.492 19.989 14.191 20.336 13.675C20.344 13.6614 20.3542 13.6493 20.366 13.639C20.391 13.621 20.427 13.629 20.456 13.642ZM14.767 22.008L25.952 17.238C25.952 17.238 25.969 17.238 25.984 17.254C26.045 17.314 26.097 17.356 26.147 17.394L26.172 17.41C26.194 17.422 26.217 17.437 26.219 17.46C26.219 17.47 26.219 17.475 26.217 17.483L25.259 23.369L25.255 23.393C25.249 23.438 25.243 23.49 25.2 23.49C24.9446 23.5074 24.6973 23.5868 24.4795 23.7213C24.2617 23.8558 24.08 24.0414 23.95 24.262L23.945 24.269C23.932 24.289 23.92 24.309 23.899 24.321C23.88 24.33 23.856 24.326 23.835 24.321L14.915 22.481C14.907 22.48 14.777 22.009 14.767 22.008Z"
    fill="#00BFA5"
  />
</svg>

<svg viewBox="0 0 40 40" xmlns="http://www.w3.org/2000/svg">
  <path
    d="m27.84 14.658-.013-.005c-.007-.003-.014-.006-.02-.012a.1.1 0 0 1-.026-.085l.704-4.304 3.302 3.302-3.434 1.461a.076.076 0 0 1-.03.005h-.014a.093.093 0 0 1-.018-.015 1.563 1.563 0 0 0-.451-.347zm4.79-.262 3.53 3.53c.733.734 1.1 1.1 1.234 1.525.02.063.036.125.049.19l-8.437-3.573a.663.663 0 0 0-.014-.005c-.033-.014-.073-.03-.073-.064 0-.035.04-.051.074-.065l.011-.004zm4.669 6.378c-.182.343-.538.698-1.139 1.3l-3.98 3.98-5.148-1.073-.027-.005c-.046-.008-.094-.016-.094-.057a1.554 1.554 0 0 0-.597-1.086c-.02-.021-.015-.054-.009-.084 0-.005 0-.01.002-.013l.968-5.944.004-.02c.005-.046.014-.098.055-.098a1.576 1.576 0 0 0 1.056-.606c.008-.01.014-.02.025-.025.029-.013.063 0 .093.013l8.79 3.718zm-6.034 6.194-6.545 6.546 1.12-6.886.002-.01a.13.13 0 0 1 .005-.026c.01-.022.033-.03.056-.04l.01-.004a1.685 1.685 0 0 0 .634-.471c.021-.026.048-.05.082-.055a.082.082 0 0 1 .026 0l4.609.947zm-7.93 7.93-.738.739-8.157-11.788a.386.386 0 0 0-.009-.013c-.013-.017-.026-.035-.024-.055.001-.014.01-.027.02-.038l.01-.012c.024-.036.045-.073.068-.112l.018-.032.003-.003c.013-.021.025-.042.046-.054.02-.01.046-.006.067-.001l9.036 1.863a.15.15 0 0 1 .07.03.075.075 0 0 1 .017.04 1.6 1.6 0 0 0 .936 1.07c.025.013.014.04.003.07a.217.217 0 0 0-.014.042l-1.353 8.255zm-1.542 1.541c-.544.538-.864.823-1.227.938a1.822 1.822 0 0 1-1.098 0c-.425-.135-.792-.5-1.525-1.235l-8.19-8.19 2.139-3.319a.137.137 0 0 1 .036-.043c.023-.016.056-.009.083 0a2.217 2.217 0 0 0 1.492-.075c.025-.01.05-.016.068.002a.173.173 0 0 1 .026.029l8.196 11.894zm-12.83-9.277-1.88-1.88 3.71-1.582a.077.077 0 0 1 .031-.007c.03 0 .05.031.066.06a2.65 2.65 0 0 0 .118.167l.012.015c.01.015.003.03-.007.045l-2.05 3.182zM6.251 24.45l-2.378-2.377c-.404-.405-.697-.698-.901-.95l7.228 1.499a.765.765 0 0 0 .027.005c.045.007.094.015.094.057 0 .045-.054.066-.1.084l-.02.009zM2.556 19.9a1.822 1.822 0 0 1 .082-.45c.135-.425.501-.79 1.235-1.525l3.042-3.042a1981.5 1981.5 0 0 0 4.214 6.09c.024.033.052.07.024.097a2.528 2.528 0 0 0-.36.48.146.146 0 0 1-.046.057c-.012.008-.024.005-.038.002h-.002l-8.15-1.71zm5.174-5.831 4.09-4.09c.385.168 1.784.759 3.035 1.287.947.4 1.81.765 2.082.883.027.011.052.022.064.05.007.016.004.037 0 .054a1.824 1.824 0 0 0 .476 1.665c.028.028 0 .067-.023.1l-.013.02-4.154 6.433a.126.126 0 0 1-.039.045c-.022.014-.053.008-.078.001a2.071 2.071 0 0 0-.495-.067c-.149 0-.311.027-.475.057-.02.003-.036.006-.05-.004a.191.191 0 0 1-.041-.047zm4.916-4.917 5.296-5.296c.733-.733 1.1-1.1 1.525-1.234a1.822 1.822 0 0 1 1.098 0c.424.134.791.501 1.525 1.234l1.147 1.148-3.766 5.833a.141.141 0 0 1-.037.044c-.023.015-.055.009-.082 0a1.91 1.91 0 0 0-1.75.337c-.024.025-.06.01-.091-.003-.492-.214-4.317-1.83-4.865-2.063zm11.391-3.348 3.478 3.477-.838 5.19v.014a.123.123 0 0 1-.007.034c-.01.019-.028.022-.046.028a1.667 1.667 0 0 0-.499.248.14.14 0 0 0-.018.016c-.01.01-.02.02-.037.023a.104.104 0 0 1-.039-.007l-5.299-2.251-.01-.005c-.034-.013-.074-.03-.074-.064a2.002 2.002 0 0 0-.282-.834c-.026-.042-.054-.085-.032-.128zm-3.581 7.838 4.968 2.104c.027.013.057.025.069.053a.097.097 0 0 1 0 .052 1.235 1.235 0 0 0-.028.24v.139c0 .035-.035.05-.068.063l-.01.004a6710.99 6710.99 0 0 1-11.064 4.711c-.015 0-.032 0-.047-.015-.028-.028 0-.066.024-.1a.692.692 0 0 0 .013-.019l4.082-6.32.008-.012c.023-.038.05-.08.094-.08l.041.006c.093.012.175.024.258.024.62 0 1.193-.301 1.54-.817a.146.146 0 0 1 .03-.036c.025-.018.061-.01.09.003zm-5.689 8.366 11.185-4.77s.017 0 .032.016c.061.06.113.102.163.14l.025.016c.022.012.045.027.047.05 0 .01 0 .015-.002.023l-.958 5.886-.004.024c-.006.045-.012.097-.055.097a1.575 1.575 0 0 0-1.25.772l-.005.007c-.013.02-.025.04-.046.052-.019.009-.043.005-.064 0l-8.92-1.84c-.008-.001-.138-.472-.148-.473z"
    style="fill: #00bfa5; stroke-width: 0.91081"
  />
</svg>
